X: 151
T: Cantantibus organis – Andante
C: Franciszek Walczyński
%%abc-version 2.0
%%abcx-abcm2ps-target-version 5.9.1 (29 Sep 2008)
%%abc-creator hum2abc beta
%%abcx-conversion-date 2021/10/04 07:38:38
%%abc-edited-by Andrzej Borzym
%%abc-edited-by Andrzej Gręziak
%%abcx-initial-encoding-date 2021-07-28
%%humdrum-veritas 4263008940
%%humdrum-veritas-data 1668791618
%%linebreak <none>
%%barnumbers 0
L: 1/8
M: 3/4
N: Derived from pl-kozmzk--mzk-m-346--053_walczynski-franciszek--cantantibus-organis-andante.krn
Q: "Andante."
%%staves {1 2}
V: 1 clef=treble
V: 2 clef=bass
K: Ab
[V:1] z6 & z6 | 
[V:2] E,E,A,2A,2 & z6 | 
[V:1] z6 & EEA2A2 | 
[V:2] B,2!accent!C4 | 
[V:1] BBc2c2 & G2A4 | 
[V:2] EEA2_G2 & z6 | 
[V:1] dfe2c2 & A2G2A2 | 
[V:2] FDE2F2 & z6 | 
[V:1] dBA2z2 & FGE2z2 | 
[V:2] B,C/D/ C.B,.A,.F, & z6 | 
[V:1] z6 & z6 | 
[V:2] E,E,A,2A,2 & z6 | 
[V:1] z6 & EEA2A2 | 
[V:2] B,2!accent!C4 & z6 | 
[V:1] BBc2c2 & G2A4 | 
[V:2] E2E4 & E,E,A,2_G,2 | 
[V:1] dfe2c2 & A2B2A2 | 
[V:2] F2G2F2- & F,D,E,2F,2 | 
[V:1] dB A.G.A.B & BG E zz2 | 
[V:2] FE/D/ C zz2 & B,,E, A,, zz2 | 
[V:1] cde2c2 & ABc2A2 | 
[V:2] z2CDE2 & x2A,B,C2 | 
[V:1] eed2B2 & A4G2 | 
[V:2] C2D2ED & A,_G,F,2E,2 | 
[V:1] ddc2A2 & G2A2F2 | 
[V:2] B,2A,2C2 & =E,2F,2F,_E, | 
[V:1] cc!fermata!B4 & AAG4 | 
[V:2] B,2-B,.D.C.B, & =D,D,!fermata!E,4 | 
[V:1] z6 & z6 | 
[V:2] E,E,A,2A,2 & z6 | 
[V:1] z6 & EEA2A2 | 
[V:2] B,2!accent!C4 & z6 | 
[V:1] BBc2c2 & G2!accent!A4 | 
[V:2] EEA2A2 & z6 | 
[V:1] eea2cd & B2!accent!A4 | 
[V:2] G2F2F2 & z6 | 
[V:1] e4ed & B2c2AB | 
[V:2] G2A2EF & E,E,A,2C,D, | 
[V:1] c6- & A6 | 
[V:2] E6 & E,6- | 
[V:1] c4B2 & G6 | 
[V:2] D6 & E,4=E,2 | 
[V:1] !fermata!A6 & F6 | 
[V:2] C6 & !fermata!F,2>.C,2.A,,.F,, | 
[V:1] z6 & z6 | 
[V:2] z6 & E,,E,,A,,2A,,2 | 
[V:1] z6 & z6 | 
[V:2] E,E,A,2A,2 & B,,B,,C,4 | 
[V:1] B,B,C2C2 | 
[V:2] [G,E,][G,E,] [A,E,][B,=E,][A,2F,2] & E,,E,, A,,G,,F,,2 | 
[V:1] !accent!E!accent!E!fermata!A4 & B,D[E4C4] |]  
[V:2] [G,2_E,2]A,4 & E,,2[E,4A,,4] |]  


